X:1
T:Title
%%score { ( 1 3 ) | ( 2 4 ) }
L:1/8
Q:1/4=100
M:4/4
K:Eb
V:1 treble nm="Grand Piano"
V:3 treble 
V:2 bass 
V:4 bass 
V:1
 [B,EG]>[B,FA] [EGB]>[EAc] [EGB]2 [B,EG]2 | [A,EA]>[Ec] [Ee]>[Ec] B4 | c>c c>c B2 G2 | %3
w: James~M.~Black * * * * *|||
 F>F G>=A B2- [AB]2 | [GB]>[GB] [GB]>[Ac] [GB]2 G2 | G>G F>E c4 | c>d e>c B>G [GB]>[GB] | %7
w: ||||
 z2 [=Ac]2 d4 | e4 z4 | d4 z4 | d4 z4 | c4 z4 | B4 z4 |[M:9/8] [Ec]3- [Ec] [Ee]2- [Ee]3 | %14
w: |||||||
[M:4/4] [Bd]2 [Ac]2 [GB]2 [FA]2[Q:1/4=98][Q:1/4=97][Q:1/4=95][Q:1/4=94][Q:1/4=92][Q:1/4=91][Q:1/4=89][Q:1/4=88][Q:1/4=86][Q:1/4=84][Q:1/4=83][Q:1/4=81][Q:1/4=80][Q:1/4=78][Q:1/4=77] | %15
w: |
 A4 z4 |] %16
w: |
V:2
 E,>E, E,>E, E,2 E,_D, | C,>[A,,A,] [A,,C]>[A,,A,] [E,G,E]4 | %2
 [A,E]>[A,E] [A,E]>[A,E] [G,B,E]2 [E,B,E]2 | [F,=A,E]>[F,A,E] [F,B,E]>[F,CE] z2 D2 | %4
 [E,E]>[E,E] [E,E]>[E,E] [E,E]2 [E,B,E]2 | [E,B,E]>[E,B,E] [F,B,E]>[G,B,] [A,E]4 | %6
 [A,E]>[A,B,E] [A,CE]>[A,E] [E,G,E]>[E,B,E] [E,E]>[E,E] | [A,E]2 .[F,E]2[K:treble] B2 z2 | %8
 [E,B,]2 [E,B,]2 [E,B,]2 [E,E]>[E,E] | [F,B,]>[F,B,] [F,B,]2 [F,B,]4 | [B,,B,]2 B,,2 B,,2 B,,>B,, | %11
 E,>E, E,2 E,4 | E,2 E,2 E,_D, C,>[B,,G,] |[M:9/8] [A,,A,]>A,,A,,- A,,/A,,/ A,,2 A,,3 | %14
[M:4/4] [B,,B,]2 [B,,B,]2 [B,,B,]2 [B,,B,]2 | [B,,B,]>[B,,B,] [B,,B,]2 [E,B,E]4 |] %16
V:3
 x8 | x8 | x8 | z4 [B,D]2 z2 | x8 | x8 | x8 | [Ac]2 z C z2 _A2 | G2 G2 [Gd]2 [Gc]>[GB] | %9
 A>A A2 [Ad]4 | A2 [B,A]2 [DAc]2 [DAd]>[DAc] | [EA]>[EA] [EA]2 [EGB]4 | %12
 [EG]2 [EG]2 [B,EG]2 [A,EA]>[EB] |[M:9/8] z z/ A,/A,- A,/A,/ C2 C3 |[M:4/4] x8 | F>D F2 G4 |] %16
V:4
 x8 | x8 | x8 | z4 B,,4 | x8 | x8 | x8 | z4[K:treble] B,4 | x8 | x8 | x8 | x8 | x8 |[M:9/8] x9 | %14
[M:4/4] x8 | x8 |] %16

